X: 20
T:Liberty
M:4/4
L:1/8
C:
S:AABB form
R:Key of D
K:D
|:f2A2f2A2|fefgfed2|g2B2g2B2|gfgagfe2|f2A2f2A2|fefgfed2|gfedcABc|d2d2d2d
2
:|!
|:A2ABA2F2|A2d2f2f2|A2ABA2F2|E2E2E2E2|!A2ABA2F2|A2d2f2f2|gfedcABc|d4d4:|
!
A2ABAGFG|ABcdf2f2|

